src/22/panel/copy-sync7.svg

<svg xmlns="http://www.w3.org/2000/svg" width="22" height="22" x="0" y="0" version="1.1" xml:space="preserve">
 <defs>
  <style id="current-color-scheme" type="text/css">
   .ColorScheme-Text { color:#dfdfdf; } .ColorScheme-Highlight { color:#5294e2; }
  </style>
 </defs>
 <path style="fill:currentColor" class="ColorScheme-Text" d="M 19.635,2.0254 14.018,8.8438 16,10 20,2.3516 Z M 5,6.5 1,10 5.375,9.375 6.3242,15 9.7109,15 6.5,7 Z M 12,9.0293 9,10 l 1,3 4,-3 z M 15,10.6 9.8555,15 18.199,15 17,12 Z M 3.836,16 c -0.4633,0 -0.8359,0.373 -0.8359,0.836 l 0,1.3281 c 0,0.463 0.3726,0.836 0.8359,0.836 l 13.164,0 0,-3 -13.164,0 z"/>
 <path style="opacity:0.4;fill:currentColor" class="ColorScheme-Text" d="M 3.8359,16 C 3.6042,16 3.3953,16.093 3.2441,16.244 3.3952,16.093 3.6043,16 3.8359,16 Z m 13.16405,0 0,3 1.16405,0 C 18.627,19 19,18.625 19,18.162 l 0,-1.3262 c 0,-0.463 -0.373,-0.836 -0.836,-0.836 l -1.16395,0 z"/>
</svg>

<svg xmlns="http://www.w3.org/2000/svg" width="22" height="22"><defs><style id="current-color-scheme" type="text/css">.ColorScheme-Text{color:#dfdfdf}</style></defs><path class="ColorScheme-Text" d="M19.635 2.025l-5.617 6.819L16 10l4-7.648zM5 6.5L1 10l4.375-.625.95 5.625H9.71L6.5 7zm7 2.53L9 10l1 3 4-3zm3 1.57L9.855 15H18.2L17 12zM3.836 16a.834.834 0 0 0-.836.836v1.328c0 .463.373.836.836.836H17v-3H3.836z" fill="currentColor"/><path class="ColorScheme-Text" d="M3.836 16zM17 16v3h1.164a.836.836 0 0 0 .836-.838v-1.326a.834.834 0 0 0-.836-.836H17z" opacity=".4" fill="currentColor"/></svg>
